X: 24139
T: Looby Light
R: slip jig
M: 9/8
K: Dmajor
|:F|D2 D A2 F A2 F|D2 D A2 F E2 F|
DED A2 F AFF|B/c/dB AdF E2:|
|:D|D2 d dcB A2 d|D2 d d2 F E2 F|
D2 d d2 B A2 F|BdB A2 F E2:|

